X:1457
T:Ich armes Maidlein
C:anon.
O:Germany
N:1545
Z:Transcribed by Frank Nordberg - http://www.musicaviva.com
F:http://abc.musicaviva.com/tunes/germany/ich-armes-maidlein.abc
M:C
L:1/4
K:Am
A|AAAE|A>Bcd-|d/c/B/A/BB|A2 z A|
w:Ich ar-mes Maid-lein klag________ mich sehr, wie
w:da\ss ich den Al-le-lieb---------sten mein so
BBeB|c2B/A/d|B2 z:|B|
w:soll mir bur Ge sche----hen, Der
w:lang nit hab ge-se----hen?
cBe>d|cBAA|(GG/)A/B>A|(G^F/E/F2)|
w:mir mein Zeit und Weil ver-treibt, sonst kei-ner auf die-ser Erd----
M:6/4
L:1/4
E2 z EA^G|A2 z BcB|A2 z eee|
w:den. Wenn ich ge-denk wie es ihm geht, mein Herz in
M:C
L:1/4
Bedc|ABdB|A2 z e|
w:gro-\ssen Trau-----ern steht, wie
cBAE|A>Bcd-|d/c/B/A/B2|A3|]
w:soll ich fr\"oh-lich wer---------den?
W:
W:Ich armes Maidlein klag mich sehr,
W:wie soll mir nur geschehen,
W:da\ss ich den Allerliebsten mein
W:so lang nit hab gesehen?
W:Der mir mein Zeit und Weil vertreibt,
W:sonst keiner auf dieser Erden.
W:Wenn ich gedenk wie es ihm geht,
W:mein Herz in gro\ssen Trauern steht,
W:wie soll ich fr\"ohlich werden?
W:
W:Ach reicher Gott, verleih ihm Gl\"uck,
W:wo er reit in die Lande,
W:bewahr ihm seinen graden Leib
W:vor Leid und auch vor Schande.
W:Das will ich immer danken dir
W:allzeit und alle Stunde.
W:Noch freu ich mich der Wiederkehr.
W:Mein einz'ger Trost, ach Gott und Herr,
W:gib, da\ss er bleib gesunde!
W:
W:
W:  From Musica Viva - http://www.musicaviva.com
W:  the Internet center for free sheet music downloads.


